web/assets/img/functions/910-closed.svg

<svg width="512" height="512" viewBox="0 0 512 512" fill="none" xmlns="http://www.w3.org/2000/svg">
    <path fill-rule="evenodd" clip-rule="evenodd"
          d="M86 188C86 180.268 92.268 174 100 174H412C419.732 174 426 180.268 426 188V496C426 503.732 419.732 510 412 510H100C92.268 510 86 503.732 86 496V188ZM106 194V490H406V194H106Z"
          fill="#282828"/>
    <path fill-rule="evenodd" clip-rule="evenodd"
          d="M126 184C126 178.477 130.477 174 136 174H242C247.523 174 252 178.477 252 184V464.78C252 470.303 247.523 474.78 242 474.78H136C130.477 474.78 126 470.303 126 464.78V184ZM146 194V454.78H232V194H146Z"
          fill="#282828"/>
    <path fill-rule="evenodd" clip-rule="evenodd"
          d="M264 184C264 178.477 268.477 174 274 174H380C385.523 174 390 178.477 390 184V464.78C390 470.303 385.523 474.78 380 474.78H274C268.477 474.78 264 470.303 264 464.78V184ZM284 194V454.78H370V194H284Z"
          fill="#282828"/>
    <path fill-rule="evenodd" clip-rule="evenodd"
          d="M98.4901 5.1669C100.369 2.55332 103.391 1.00391 106.61 1.00391H405.39C408.609 1.00391 411.631 2.55332 413.51 5.1669L509.12 138.167C511.309 141.213 511.61 145.228 509.899 148.566C508.187 151.904 504.751 154.004 501 154.004H11C7.24872 154.004 3.81292 151.904 2.10144 148.566C0.38996 145.228 0.6907 141.213 2.88035 138.167L98.4901 5.1669ZM111.737 21.0039L30.5045 134.004H481.496L400.263 21.0039H111.737Z"
          fill="#00D151"/>
    <path fill-rule="evenodd" clip-rule="evenodd"
          d="M1 144C1 138.477 5.47715 134 11 134H501C506.523 134 511 138.477 511 144V184C511 189.523 506.523 194 501 194H11C5.47715 194 1 189.523 1 184V144ZM21 154V174H491V154H21Z"
          fill="#00D151"/>
</svg>

<?xml version="1.0" encoding="utf-8"?>
<!-- Generator: Adobe Illustrator 28.2.0, SVG Export Plug-In . SVG Version: 6.00 Build 0)  -->
<svg version="1.1" id="Calque_1" xmlns="http://www.w3.org/2000/svg" xmlns:xlink="http://www.w3.org/1999/xlink" x="0px" y="0px"
	 viewBox="0 0 512 512" style="enable-background:new 0 0 512 512;" xml:space="preserve">
<style type="text/css">
	.st0{fill-rule:evenodd;clip-rule:evenodd;fill:#1D1D1B;}
	.st1{fill-rule:evenodd;clip-rule:evenodd;fill:#282828;}
	.st2{fill-rule:evenodd;clip-rule:evenodd;fill:#33B0DF;}
</style>
<path class="st0" d="M86,188c0-7.7,6.3-14,14-14h312c7.7,0,14,6.3,14,14v308c0,7.7-6.3,14-14,14H100c-7.7,0-14-6.3-14-14V188z
	 M106,194v296h300V194H106z"/>
<path class="st0" d="M126,184c0-5.5,4.5-10,10-10h106c5.5,0,10,4.5,10,10v280.8c0,5.5-4.5,10-10,10H136c-5.5,0-10-4.5-10-10V184z
	 M146,194v260.8h86V194H146z"/>
<path class="st1" d="M264,184c0-5.5,4.5-10,10-10h106c5.5,0,10,4.5,10,10v280.8c0,5.5-4.5,10-10,10H274c-5.5,0-10-4.5-10-10V184z
	 M284,194v260.8h86V194H284z"/>
<path class="st2" d="M98.5,5.2c1.9-2.6,4.9-4.2,8.1-4.2h298.8c3.2,0,6.2,1.5,8.1,4.2l95.6,133c2.2,3,2.5,7.1,0.8,10.4
	c-1.7,3.3-5.1,5.4-8.9,5.4H11c-3.8,0-7.2-2.1-8.9-5.4c-1.7-3.3-1.4-7.4,0.8-10.4L98.5,5.2z M111.7,21L30.5,134h451L400.3,21H111.7z"
	/>
<path class="st2" d="M1,144c0-5.5,4.5-10,10-10h490c5.5,0,10,4.5,10,10v40c0,5.5-4.5,10-10,10H11c-5.5,0-10-4.5-10-10V144z M21,154
	v20h470v-20H21z"/>
</svg>
